X:1
T:Funeral March of a Marionette
C:Charles Gounod
M:6/8
L:1/8
Q:3/8=152
K:Dm
% A section — quirky staccato march (Hitchcock "Presents" theme), D4–D5
F | .D.E.F .D.G.F | .E.D z ABc | dcB AG z | FED2 z2 |
.D.E.F .D.G.F | .E.D z Acd | cBA GFG | A2D2 z2 |
FGA Bcd | dcB AGF | GABc BA | GFED3 |
.D.E.F .D.G.F | .E.D z Acd | dcBA GF | E2 D4 |]
